!!!COM: Manuel de Falla (y Matheu)
!!!OTL: [R310_Fal-w3p15m1-8]
!!!OMV:
!!!example:
!!!work:
**kern	**kern	**dynam
*part1	*part1	*part1
*staff2	*staff1	*
*I"Piano	*	*
*I'Pno.	*	*
*clefF4	*clefF4	*
*k[f#c#g#d#a#e#]	*k[f#c#g#d#a#e#]	*
*F#:	*F#:	*
*M3/8	*M3/8	*
=1	=1	=1
!	!LO:TX:t=[quarter]=120	!
8%3r	8r	.
.	8r	pp
.	(24c#LL	.
.	24F#	.
.	24C#J	.
=2	=2	=2
*	*^	*
8ryy	8ryy@	8r	.
8r	8f#'L	16f#LL	.
.	.	16A#	.
8c#' 8d#	8e#'J	16e#	.
.	.	16A#JJ	.
=3	=3	=3	=3
8%3ryy	8f#'L	16f#LL	.
.	.	16A#	.
.	8d#'	16d#	.
.	.	16A#J	.
.	8c#'J	24c#L	.
*^	*v	*v	*
.	24c#	.	.
.	24F#JJ	.	.
*v	*v	*	*
=4	=4	=4
*	*^	*
8ryy	8ryy@	8r	.
8r	8f#'L	16f#LL	.
.	.	16A#	.
8c#' 8d#	8e#'J	16e#	.
.	.	16A#JJ	.
=5	=5	=5	=5
8%3ryy	8f#'L	16f#LL	.
.	.	16A#	.
.	8d#'	16d#	.
.	.	16A#J	.
.	8c#'J	24c#L	.
*^	*v	*v	*
.	24c#	.	.
.	24F#JJ	.	.
*v	*v	*	*
=6	=6	=6
*	*^	*
8ryy	8ryy@	8r	<
8r	8f#'L	16f#LL	.
.	.	16A#	.
8d#' 8e#	8e#'J	16e#	.
.	.	16A#JJ	.
=7	=7	=7	=7
8r'	8f#'L	16f#LL	.
.	.	16A#	.
8c#' 8d#	8d#'	16d#	.
.	.	16A#	.
8r'	8c#'J	16c#	.
.	.	16BJJ	[
=8	=8	=8	=8
8c#' 8d#	8f#'L	16f#LL	>
.	.	16A#	.
8r	8d#'	16d#	.
.	.	16A#	.
8r	8c#'J	16c#	.
.	.	16BJJ	]
=9	=9	=9	=9
8%3ryy	8f#'L	16f#LL	.
.	.	16A#	.
.	8d#'	16d#	.
.	.	16A#J	.
.	8c#'J	24c#L	.
*^	*v	*v	*
.	24c#	.	.
.	24F#JJ	.	.
*v	*v	*	*
=	=	=
*-	*-	*-
!!!system-decoration: [({(s1,s2)})]
!!!CDT:
!!!CBL:
!!!CDL:
!!!CNT:
!!!AGN:
!!!MCN:
!!!MDT:
!!!MGN:
!!!MLC:
!!!MPD:
!!!MPN:
!!!ODT:
!!!PDT:
!!!excerpt-start-measure:
!!!excerpt-end-measure:
!!!excerpt-start-time:
!!!excerpt-end-time:
!!!EEV: 2020/07/28
!!!ONB: Converted from MusicXML on 2020/07/28
